src/lib/packages/icons/src/assets/line/note-list.svg

<svg width="24" height="24" viewBox="0 0 24 24" fill="none" xmlns="http://www.w3.org/2000/svg">
<path d="M17 2.25H7C4.582 2.25 3.25 3.582 3.25 6V18C3.25 20.418 4.582 21.75 7 21.75H17C19.418 21.75 20.75 20.418 20.75 18V6C20.75 3.582 19.418 2.25 17 2.25ZM19.25 18C19.25 19.577 18.577 20.25 17 20.25H7C5.423 20.25 4.75 19.577 4.75 18V6C4.75 4.423 5.423 3.75 7 3.75H17C18.577 3.75 19.25 4.423 19.25 6V18ZM8.75 8C8.75 8.414 8.414 8.75 8 8.75C7.586 8.75 7.25 8.414 7.25 8C7.25 7.586 7.586 7.25 8 7.25C8.414 7.25 8.75 7.586 8.75 8ZM8.75 12C8.75 12.414 8.414 12.75 8 12.75C7.586 12.75 7.25 12.414 7.25 12C7.25 11.586 7.586 11.25 8 11.25C8.414 11.25 8.75 11.586 8.75 12ZM8.75 16C8.75 16.414 8.414 16.75 8 16.75C7.586 16.75 7.25 16.414 7.25 16C7.25 15.586 7.586 15.25 8 15.25C8.414 15.25 8.75 15.586 8.75 16ZM16.75 8C16.75 8.414 16.414 8.75 16 8.75H11C10.586 8.75 10.25 8.414 10.25 8C10.25 7.586 10.586 7.25 11 7.25H16C16.414 7.25 16.75 7.586 16.75 8ZM16.75 12C16.75 12.414 16.414 12.75 16 12.75H11C10.586 12.75 10.25 12.414 10.25 12C10.25 11.586 10.586 11.25 11 11.25H16C16.414 11.25 16.75 11.586 16.75 12ZM16.75 16C16.75 16.414 16.414 16.75 16 16.75H11C10.586 16.75 10.25 16.414 10.25 16C10.25 15.586 10.586 15.25 11 15.25H16C16.414 15.25 16.75 15.586 16.75 16Z" fill="currentColor"/>
</svg>

<svg xmlns="http://www.w3.org/2000/svg" width="24" height="24" fill="none"><path fill="currentColor" d="M17 2.25H7C4.582 2.25 3.25 3.582 3.25 6v12c0 2.418 1.332 3.75 3.75 3.75h10c2.418 0 3.75-1.332 3.75-3.75V6c0-2.418-1.332-3.75-3.75-3.75ZM19.25 18c0 1.577-.673 2.25-2.25 2.25H7c-1.577 0-2.25-.673-2.25-2.25V6c0-1.577.673-2.25 2.25-2.25h10c1.577 0 2.25.673 2.25 2.25v12ZM8.75 8a.75.75 0 1 1-1.5 0 .75.75 0 0 1 1.5 0Zm0 4a.75.75 0 1 1-1.5 0 .75.75 0 0 1 1.5 0Zm0 4a.75.75 0 1 1-1.5 0 .75.75 0 0 1 1.5 0Zm8-8a.75.75 0 0 1-.75.75h-5a.75.75 0 0 1 0-1.5h5a.75.75 0 0 1 .75.75Zm0 4a.75.75 0 0 1-.75.75h-5a.75.75 0 0 1 0-1.5h5a.75.75 0 0 1 .75.75Zm0 4a.75.75 0 0 1-.75.75h-5a.75.75 0 0 1 0-1.5h5a.75.75 0 0 1 .75.75Z"/></svg>
